**kern
*staff2
*I"Piano
=1-
*clefF4
*k[]
*M4/4
1r
=2
2r
8G\L
8e\
8c\
8e\J
=3
8F\L
8e\
8c\
8e\J
8F\L
8d\
8B\
8d\J
=4
!!linebreak:original
8E\L
8c\
8A\
8c\J
8r
8D\L
8f\
8e\J
*clefG2
=5
8d/L
8b-/
8g/
8b-/J
8e/L
8g/J
4b-\
=6
8b-\L
8dd-\
8f\
8b-\J
8e\L
8dd-\
8b-\
8dd-\J
=7
!!pagebreak:original
8d\L
8b-\
8dd-\
8cc\J
8b-\L
8cc\
8a\
8b-\J
*clefF4
=8
8r
8BBBn/L
8FF/
8C/J
8BB/
4AA/
[8GG/
=9
8GG/]
4.FF#/
2FF#/
=10
2.FF/
4EE/
=11
!!linebreak:original
4.DD/
8BB-/
8GG/L
8BB-/
8EE/
8C/J
=12
8AA/L
8C/
8FF/
8D-/J
8AA-/L
8D-/J
4r
=13
1r
=14
2r
8r
8DD/L
8EE-/
8FF/J
=15
!!linebreak:original
4.GG-/
8FF/
8AA-/L
8FF/
8AA-/
8C/J
=16
4.F\
4G-\
4A-\
[8B-\
=17
8B-\]
4c\
8d\
4e-\
4f\
=18
2g\
2GGG/ 2GG/
=19
!!pagebreak:original
[1CCC [1CC
=20
1CCC_ 1CC_
=21
1CCC] 1CC]
==
*-
